!!!COM: Vivaldi, Antonio Lucio
!!!CDT: 1678/03/04-1741/08/28
!!!OPR: 12 Sonatas for Violin and Basso continuo
!!!OTL: Sonata in D minor, op. @{OPS}, no. @{ONM} (@{SCT})
!!!OPS: 2
!!!ONM: 3
!!!OMV: 2. Corrente
!!!SCT: RV 14
!!!SCA: Antonio Vivaldi: Thematisch-systematisches Verzeichnis seiner Werke (Ryom-Verzeichnis)
!!!OMD: Andante
!!!key: d
**kern	**fb	**kern
*part2	*	*part1
*staff2	*	*staff1
*ICklav	*	*ICstr
*Icemba	*	*Ivioln
*I"Basso continuo	*	*I"Violino
*I'bc	*	*I'v
*>[A,A,B,B]	*>[A,A,B,B]	*>[A,A,B,B]
*>norep[A,B]	*>norep[A,B]	*>norep[A,B]
*>A	*>A	*>A
*clefF4	*	*clefG2
*k[b-]	*	*k[b-]
*d:	*	*d:
*M3/4	*	*M3/4
*MM150	*	*MM150
=1	=1	=1
8r	.	4dd\
8d\	.	.
8A\L	.	(4.dd\T
8F\J	.	.
8D\L	.	.
8d\J	.	16cc#X\LL
.	.	16dd\JJ)
=2	=2	=2
2c#X\	6	8ee/L
.	.	8cc#X/
.	.	8a/
.	.	8e/
4r	.	8c#X/
.	.	8A/J
=3	=3	=3
8r	.	4ee\
8A\	#	.
8E\L	.	(4.ee\t
8C#X\J	.	.
8AA\L	.	.
8c#X\J	.	16dd\LL
.	.	16ee\JJ)
=4	=4	=4
2d\	.	8ff/L
.	.	8dd/
.	.	8a/
.	.	8f/
4r	.	8d/
.	.	8A/J
=5	=5	=5
8r	.	4ff\
8d\	.	.
8A\L	.	(4.ff\T
8F\J	.	.
8D\L	.	.
8d\J	.	16ee\LL
.	.	16ff\JJ)
=6	=6	=6
2e\	6	8gg/L
.	.	8ee/
.	.	8cc/
.	.	8g/
4r	.	8e/
.	.	8c/J
!!LO:LB:g=original
=7	=7	=7
8r	.	4gg\
8e\	.	.
8c\L	.	(4.gg\T
8G\J	.	.
8E\L	.	.
8e\J	.	16ff\LL
.	.	16gg\JJ)
=8	=8	=8
4f\	.	8aa\L
.	.	(16gg\L
.	.	16ff\JJ
4G\	.	8ee\L)
.	.	8dd\
8A\L	#	8cc#X\
8B-y\J	.	8dd\J
=9	=9	=9
8A\L	#	8ee\L
8AA\	.	8dd\
8AA\	.	8cc#X\
8BBn\	.	8bn\J
8C#X\	.	4a/
8AA\J	.	.
=10	=10	=10
4D\	.	8r
.	.	8dd\
4F#X\	6	(8dd\L
.	5	8cc\)
4D\	7 #	(8cc\
.	6nr	8bn\J)
=11	=11	=11
4G\	n	(8b\L
.	.	8ee\)
4G#X\	6	(8ee\
.	5	8dd\)
4E\	7 #	(8dd\
.	6#/	8cc#X\J)
=12	=12	=12
4A\	#	(8cc#X\L
.	.	8ff\)
4r	.	(8ff\
.	.	8ee\)
4A\	.	(8ee\
.	.	8dd\J)
=13	=13	=13
4B-y\	7	(8dd\L
.	.	8gg\)
4Bn\	6	(8gg\
.	.	8ff\)
4G\	n	(8ff\
.	.	8ee\J)
!!LO:LB:g=original
=14	=14	=14
4c\	.	(8ee\L
.	.	8aa\)
4c#X\	6	(8aa\
.	.	8gg\)
4A\	7 #	(8gg\
.	.	8ff\J)
=15	=15	=15
4d\	.	(8ff\L
.	.	8ee\
4r	.	8dd\)
.	.	8ee\
4D\	.	8ff\
.	.	8gg\J
=16	=16	=16
4Cn/	6	8aa\L
.	.	8bb-y\J
2BB-y/	6	(4.gg\T
.	.	16ff\LL
.	.	16gg\JJ)
=17	=17	=17
2AA/	#	8aa\L
.	.	(16gg\L
.	.	16ff\JJ
.	.	8ee\L)
.	.	8dd\
4r	.	8cc#X\
.	.	8bn\J
=18	=18	=18
2AA/	.	8a/L
.	.	(16g/L
.	.	16f/JJ
.	.	8e/L)
.	.	8d/
4r	.	8c#X/
.	.	8Bn/J
=19	=19	=19
2.AA/	.	2.A/
=20:|!|:	=20:|!|:	=20:|!|:
*>B	*>B	*>B
8d\L	.	4aa\
8cn\	.	.
8d\	#	(4.ff#X\t
8e-X\	.	.
8d\	.	.
8c\J	.	16ee\LL
.	.	16ff#X\JJ)
!!LO:LB:g=original
=21	=21	=21
8B-y\L	6	4.gg\
8c\	.	.
8B-y\	.	.
8A\	.	8dd\
8B-y\	.	[4gg\
8G\J	.	.
=22	=22	=22
8c\L	6 5	8gg\L]
8A\	.	8aa\J
8d\	5 4	4.ff#X\t
8c\	.	.
8d\	#	.
8D\J	.	8gg\
=23	=23	=23
4GG/	.	2.gg\
8G\L	.	.
8A\	.	.
8B-y\	.	.
8G\J	.	.
=24	=24	=24
8c\L	.	4gg\
8B-y\	.	.
8c\	.	(4.ee\t
8d\	.	.
8c\	.	.
8B-y\J	.	16dd\LL
.	.	16ee\JJ)
=25	=25	=25
8A\L	6	4.ff\
8B-y\	.	.
8A\	.	.
8G\	.	8cc\
8A\	.	[4ff\
8F\J	.	.
=26	=26	=26
8B-y\L	6 5	8ff\L]
8G\	.	8gg\J
8c\	5 4	4.ee\t
8B-y\	.	.
8c\	3	.
8C\J	.	8ff\
=27	=27	=27
4F\	.	8ff\L
.	.	8a\
4r	.	8dd\
.	.	8a\
4F#X\	6 5	8dd\
.	.	8cc\J
=28	=28	=28
4G\	n	8bn\L
.	.	8dd\
4GG/	.	8ee\
.	.	8ff\
4r	.	8gg\
.	.	8bn\J
!!LO:PB:g=original
=29	=29	=29
4A\	#	8cc#X\L
.	.	8ee\
4AA/	.	8ff\
.	.	8gg\
4r	.	8aa\
.	.	8cc#X\J
=30	=30	=30
4B-y\	5	8dd\L
.	.	8ff\
4BB-y/	6	8gg\
.	.	8aa\
4d\	6	8bb-y\
.	.	8aa\J
=31	=31	=31
4E\	#	(8gg#X\L
.	.	8ffn\
4G#X\	.	8ee\
.	.	8dd\
4E\	.	8cc#X\
.	.	8bn\J)
=32	=32	=32
4A\	#	(8cc#X\L
.	.	8ee\
4c#X\	.	8aa\
.	.	8gg\
4A\	.	8ff#X\
.	.	8ee\J)
=33	=33	=33
4D\	#	(8ff#X\L
.	.	8ee\
4F#X\	.	8dd\
.	.	8ccn\
4D\	.	8bn\
.	.	8a\J)
=34	=34	=34
4G\	n	(8bn\L
.	.	8dd\
4Bn\	.	8gg\
.	.	8ffn\
4G\	.	8ee\
.	.	8dd\J)
=35	=35	=35
4C/	.	(8ee\L
.	.	8dd\
4E\	.	8cc\
.	.	8bn\
4C/	6	8a\
.	.	8g#X\J)
!!LO:LB:g=original
=36	=36	=36
4F\	.	(8a\L
.	.	8cc\
4A\	.	8ff\
.	.	8ee\
4F\	.	8dd\
.	.	8cc\J)
=37	=37	=37
4BBn/	5	(8dd/L
.	.	8cc/
4D\	6nr	8bn/
.	.	8a/
4BBn/	6#/	8g#X/
.	.	8f#X/J)
=38	=38	=38
4E\	#	(8g#X\L
.	.	8bn\
4G#X\	.	8ee\
.	.	8dd\
4E\	.	8cc#X\
.	.	8bn\J)
=39	=39	=39
2AA/	#	8cc#X\L
.	.	8a\
.	.	8cc#X\
.	.	8ee\
4C#X/	.	8aa\
.	.	8ee\J
=40	=40	=40
4D\	.	8ff\L
.	.	8dd\
4d\	.	8ff\
.	.	8aa\
4G\	.	8bb-y\
.	.	8dd\J
=41	=41	=41
4.A\	#	4.cc#X\t
8G\	.	8a/
4F\	6	8dd/L
.	.	8f/J
=42	=42	=42
4G\	6 5	8e/L
.	.	8dd/
4A\	5 4	8e/
.	.	8dd/
4AA/	#	8e/
.	.	8cc#X/J
!!LO:LB:g=original
=43	=43	=43
2.D\	.	8.dd\L
.	.	16ee\k
.	.	8.ff\
.	.	16a\k
.	.	8.b-y\
.	.	16ccn\Jk
=44	=44	=44
2.G\	.	4b-y\
.	.	4g/
.	.	4ff\
=45	=45	=45
2.G\	5	(8bb-y\L
.	.	8aa\
.	.	8gg\
.	.	8ff\
.	6	8ee\
.	.	8dd\J)
=46	=46	=46
2F\	.	4.aa\
.	.	8a/
4B-y\	.	[4dd\
=47	=47	=47
4G\	6 5	8dd\L]
.	.	8gg\J
4A\	5 4	2ee\t
4AA/	#	.
=48	=48	=48
2D\	.	8dd\L
.	.	(16cc\L
.	.	16b-y\JJ
.	.	8a/L)
.	.	8g/
4r	.	8f/
.	.	8e/J
=49	=49	=49
2D\	.	8f/L
.	.	(16a/L
.	.	16g/JJ
.	.	8f/L)
.	.	8e/
4r	.	8d/
.	.	8c#X/J
=50	=50	=50
2.D\;	.	2.d/;
=:|!	=:|!	=:|!
*-	*-	*-
!!!SMS: RV 14 / Estienne Roger, Amsterdam [facs.]
!!!ENC: Fran Bennion; rev. 04/21 E. Correia
!!!END: 2004/11/22
!!!ONB: Converted from MuseData with musedata2hum on Sat May 11 12:07:51 2024
!!!YEM: (C) 2004, 2004 Center for Computer Assisted Research in the Humanities.
!!!system-decoration: [(s1,s2)]
!!!URL-info: https://wiki.ccarh.org/wiki/MuseData:_Antonio_Vivaldi#Op._2:_Sonate_a_violino_e_basso_per_il_cembalo
!!!URL-pdf: https://pdf.musedata.org/vivaldi-op02-no03.pdf#page=2 MuseData edition
!!!URL-pdf: http://conquest.imslp.info/files/imglnks/usimg/b/b7/IMSLP99075-PMLP183164-Vivaldi_-_Sonatas_Op2.pdf#page=10 Estienne Roger Amsterdam: Estienne Roger, No.2, n.d.[1711].
!!!URL-youtube: https://www.youtube.com/watch?v=SiijZmW9jKM&t=653s L'Arte dell'Arco
!!!title: @{OTL}, mov. @{OMV}
!!!filter-chint: chint -mid
!!!EEV: 2024/05/11
!!!source-file: https://bitbucket.org/musedata/vivaldi/src/master/roger/op2/no03/stage2/02/01
!!!source-file: https://bitbucket.org/musedata/vivaldi/src/master/roger/op2/no03/stage2/02/02
